pointercrate-demonlist-pages/static/images/flags/kr/41.svg

<?xml version="1.0" encoding="UTF-8" standalone="no"?>
<svg
   xmlns:dc="http://purl.org/dc/elements/1.1/"
   xmlns:cc="http://creativecommons.org/ns#"
   xmlns:rdf="http://www.w3.org/1999/02/22-rdf-syntax-ns#"
   xmlns:svg="http://www.w3.org/2000/svg"
   xmlns="http://www.w3.org/2000/svg"
   xmlns:sodipodi="http://sodipodi.sourceforge.net/DTD/sodipodi-0.dtd"
   xmlns:inkscape="http://www.inkscape.org/namespaces/inkscape"
   viewBox="0 0 850.00012 311.45306"
   version="1.1"
   id="svg42"
   sodipodi:docname="Flag_of_Gyeonggi_Province_(2021).svg"
   width="850.00012"
   height="311.45306"
   inkscape:version="0.92.5 (2060ec1f9f, 2020-04-08)">
  <metadata
     id="metadata48">
    <rdf:RDF>
      <cc:Work
         rdf:about="">
        <dc:format>image/svg+xml</dc:format>
        <dc:type
           rdf:resource="http://purl.org/dc/dcmitype/StillImage" />
        <dc:title></dc:title>
      </cc:Work>
    </rdf:RDF>
  </metadata>
  <defs
     id="defs46" />
  <sodipodi:namedview
     pagecolor="#ffffff"
     bordercolor="#666666"
     borderopacity="1"
     objecttolerance="10"
     gridtolerance="10"
     guidetolerance="10"
     inkscape:pageopacity="0"
     inkscape:pageshadow="2"
     inkscape:window-width="1920"
     inkscape:window-height="1018"
     id="namedview44"
     showgrid="false"
     fit-margin-top="0"
     fit-margin-left="0"
     fit-margin-right="0"
     fit-margin-bottom="0"
     inkscape:zoom="0.59501726"
     inkscape:cx="309.56772"
     inkscape:cy="-80.474616"
     inkscape:window-x="-8"
     inkscape:window-y="-8"
     inkscape:window-maximized="1"
     inkscape:current-layer="g40" />
  <g
     id="g40"
     transform="translate(-250,-199.99995)">
    <g
       id="g22">
      <path
         d="M 800.53212,287.16897 H 543.65156 v -87.16902 h 256.88056 z"
         id="path4"
         inkscape:connector-curvature="0"
         style="fill:#02983b" />
      <g
         id="g8">
        <path
           d="M 0,0 -120.083,-62.198 V -13.78 L 14.229,55.071 V 24.779 C 14.229,14.559 9.83,5.088 0,0"
           transform="matrix(1.91257,0,0,-1.91257,773.318,392.495)"
           id="path6"
           inkscape:connector-curvature="0"
           style="fill:#004097" />
      </g>
      <path
         d="M 1099.9998,287.16897 H 837.3012 v -87.16902 h 262.6986 z"
         id="path10"
         inkscape:connector-curvature="0"
         style="fill:#02983b" />
      <path
         d="M 506.87865,287.16897 H 250 v -87.16902 h 256.87865 z"
         id="path12"
         inkscape:connector-curvature="0"
         style="fill:#02983b" />
      <g
         id="g16">
        <path
           d="M 0,0 -120.087,-62.198 V -13.78 L 14.224,55.071 V 24.779 C 14.224,14.559 9.819,5.088 0,0"
           transform="matrix(1.91257,0,0,-1.91257,479.675,392.495)"
           id="path14"
           inkscape:connector-curvature="0"
           style="fill:#004097" />
      </g>
      <g
         id="g20">
        <path
           d="M 0,0 V -23.377 C 0,-35.639 9.942,-45.579 22.206,-45.579 H 137.354 V 0 Z"
           transform="matrix(1.91257,0,0,-1.91257,837.301,363.353)"
           id="path18"
           inkscape:connector-curvature="0"
           style="fill:#004097" />
      </g>
    </g>
  </g>
</svg>

<?xml version="1.0" encoding="UTF-8"?>
<svg id="svg42" width="850" height="311.45" version="1.1" viewBox="0 0 850 311.45" xmlns="http://www.w3.org/2000/svg" xmlns:cc="http://creativecommons.org/ns#" xmlns:dc="http://purl.org/dc/elements/1.1/" xmlns:rdf="http://www.w3.org/1999/02/22-rdf-syntax-ns#">
 <metadata id="metadata48">
  <rdf:RDF>
   <cc:Work rdf:about="">
    <dc:format>image/svg+xml</dc:format>
    <dc:type rdf:resource="http://purl.org/dc/dcmitype/StillImage"/>
    <dc:title/>
   </cc:Work>
  </rdf:RDF>
 </metadata>
 <g id="g40" transform="translate(-250 -200)">
  <g id="g22">
   <path id="path4" d="m800.53 287.17h-256.88v-87.169h256.88z" fill="#02983b"/>
   <g id="g8">
    <path id="path6" transform="matrix(1.9126 0 0 -1.9126 773.32 392.5)" d="m0 0-120.08-62.198v48.418l134.31 68.851v-30.292c0-10.22-4.399-19.691-14.229-24.779" fill="#004097"/>
   </g>
   <path id="path10" d="m1100 287.17h-262.7v-87.169h262.7z" fill="#02983b"/>
   <path id="path12" d="m506.88 287.17h-256.88v-87.169h256.88z" fill="#02983b"/>
   <g id="g16">
    <path id="path14" transform="matrix(1.9126 0 0 -1.9126 479.68 392.5)" d="m0 0-120.09-62.198v48.418l134.31 68.851v-30.292c0-10.22-4.405-19.691-14.224-24.779" fill="#004097"/>
   </g>
   <g id="g20">
    <path id="path18" transform="matrix(1.9126 0 0 -1.9126 837.3 363.35)" d="m0 0v-23.377c0-12.262 9.942-22.202 22.206-22.202h115.15v45.579z" fill="#004097"/>
   </g>
  </g>
 </g>
</svg>
